build/images/content/clients/img_2.svg

<svg width="148" height="148" viewBox="0 0 148 148" fill="none" xmlns="http://www.w3.org/2000/svg">
<g clip-path="url(#clip0)">
<path d="M93.6545 116.782H54.3427C53.7037 116.782 53.1865 117.299 53.1865 117.938V134.126C53.1865 134.433 53.3083 134.726 53.5253 134.943L58.1504 139.568C58.3671 139.785 58.6607 139.907 58.9679 139.907H89.0296C89.3365 139.907 89.6301 139.785 89.8471 139.568L94.472 134.943C94.6886 134.726 94.8107 134.433 94.8107 134.126V117.938C94.8107 117.299 94.2915 116.782 93.6545 116.782ZM92.4983 133.647L88.5509 137.594H59.4467L55.499 133.647V119.094H92.4983V133.647Z" fill="white"/>
<path d="M95.9041 121.409L51.9695 123.722C51.3328 123.755 50.8428 124.3 50.8767 124.937C50.9082 125.553 51.4187 126.032 52.0306 126.032C52.0508 126.032 52.0711 126.032 52.0916 126.029L96.0261 123.717C96.6631 123.683 97.1552 123.139 97.119 122.502C97.0875 121.865 96.5546 121.317 95.9041 121.409Z" fill="white"/>
<path d="M95.9041 128.346L51.9695 130.659C51.3328 130.693 50.8428 131.237 50.8767 131.874C50.9082 132.49 51.4187 132.969 52.0306 132.969C52.0508 132.969 52.0711 132.969 52.0916 132.967L96.0261 130.654C96.6631 130.62 97.1552 130.076 97.119 129.439C97.0875 128.803 96.5546 128.272 95.9041 128.346Z" fill="white"/>
<path d="M73.9994 38.1562C52.3217 38.1562 34.6865 55.7917 34.6865 77.4691C34.6865 91.1253 41.5903 103.526 53.1866 110.77V117.938C53.1866 118.577 53.7038 119.094 54.3428 119.094H93.6545C94.2915 119.094 94.8107 118.577 94.8107 117.938V110.77C106.405 103.526 113.311 91.1253 113.311 77.4691C113.311 55.7914 95.6736 38.1562 73.9994 38.1562ZM93.0583 109.133C92.7106 109.343 92.4983 109.72 92.4983 110.124V116.782H55.4996V110.124C55.4996 109.72 55.2873 109.343 54.9396 109.133C43.7066 102.362 36.9992 90.5242 36.9992 77.4688C36.9992 57.0674 53.5979 40.4687 73.9997 40.4687C94.4 40.4687 110.999 57.0674 110.999 77.4688C110.999 90.5242 104.291 102.362 93.0583 109.133Z" fill="white"/>
<path d="M84.9284 137.728C84.3637 137.439 83.6683 137.662 83.3747 138.225C83.2888 138.387 81.193 142.22 73.9994 142.22C66.8133 142.22 64.7129 138.399 64.6227 138.225C64.3357 137.66 63.6493 137.432 63.0757 137.716C62.5043 138.003 62.2738 138.696 62.5584 139.268C62.6666 139.482 65.2909 144.532 73.9991 144.532C82.7062 144.532 85.3302 139.482 85.4389 139.268C85.7233 138.701 85.493 138.017 84.9284 137.728Z" fill="white"/>
<path d="M24.2802 76.3124H1.15524C0.515952 76.3124 -0.000976562 76.8296 -0.000976562 77.4686C-0.000976562 78.1079 0.515952 78.6248 1.15524 78.6248H24.2802C24.9195 78.6248 25.4367 78.1079 25.4367 77.4686C25.4367 76.8296 24.9195 76.3124 24.2802 76.3124Z" fill="white"/>
<path d="M146.843 76.3124H123.718C123.076 76.3124 122.562 76.8296 122.562 77.4686C122.562 78.1079 123.076 78.6248 123.718 78.6248H146.843C147.48 78.6248 147.999 78.1079 147.999 77.4686C147.999 76.8296 147.48 76.3124 146.843 76.3124Z" fill="white"/>
<path d="M31.943 101.75C31.6246 101.197 30.9156 101.003 30.3645 101.328L10.333 112.891C9.77993 113.209 9.59016 113.916 9.91097 114.469C10.123 114.84 10.5138 115.047 10.9113 115.047C11.1077 115.047 11.3064 114.998 11.4895 114.891L31.5207 103.329C32.0741 103.01 32.2636 102.303 31.943 101.75Z" fill="white"/>
<path d="M138.081 40.4686C137.764 39.9129 137.055 39.7232 136.504 40.0463L116.482 51.6088C115.926 51.9272 115.737 52.6339 116.057 53.1873C116.27 53.5579 116.663 53.7656 117.06 53.7656C117.254 53.7656 117.453 53.7158 117.638 53.6096L137.661 42.0472C138.211 41.7287 138.401 41.0217 138.081 40.4686Z" fill="white"/>
<path d="M110.998 13.384C110.442 13.0612 109.733 13.253 109.417 13.8064L97.8589 33.8332C97.5384 34.3866 97.7282 35.0933 98.2836 35.4118C98.4644 35.5179 98.6628 35.5677 98.8618 35.5677C99.2593 35.5677 99.6478 35.3597 99.8598 34.9894L111.418 14.9626C111.739 14.4092 111.549 13.7025 110.998 13.384Z" fill="white"/>
<path d="M75.1555 4.62448C75.1555 3.98548 74.6383 3.46826 73.9993 3.46826C73.36 3.46826 72.8428 3.98548 72.8428 4.62448L72.8474 27.7454C72.8474 28.3844 73.3646 28.9016 74.0039 28.9016C74.6429 28.9016 75.1601 28.3844 75.1601 27.7454L75.1555 4.62448Z" fill="white"/>
<path d="M50.1454 33.8287L38.5826 13.8065C38.2641 13.2511 37.5551 13.0637 37.0041 13.3842C36.4507 13.7027 36.2612 14.4094 36.5817 14.9627L48.1445 34.9849C48.3565 35.3555 48.7473 35.5632 49.1448 35.5632C49.3412 35.5632 49.5399 35.5134 49.723 35.4073C50.2764 35.0888 50.4659 34.3821 50.1454 33.8287Z" fill="white"/>
<path d="M137.666 112.886L117.639 101.323C117.088 101.003 116.375 101.192 116.058 101.746C115.738 102.299 115.927 103.006 116.483 103.324L136.51 114.887C136.69 114.993 136.889 115.043 137.088 115.043C137.485 115.043 137.874 114.835 138.086 114.465C138.407 113.911 138.217 113.205 137.666 112.886Z" fill="white"/>
<path d="M31.5204 51.5995L11.4982 40.0414C10.9471 39.7229 10.2381 39.9104 9.91962 40.4637C9.5991 41.0168 9.78858 41.7238 10.342 42.0423L30.3642 53.6004C30.5473 53.7066 30.746 53.7563 30.9424 53.7563C31.3399 53.7563 31.7304 53.5483 31.9427 53.1781C32.2632 52.6247 32.0738 51.918 31.5204 51.5995Z" fill="white"/>
<path d="M73.9973 54.3439C61.2468 54.3439 50.8721 64.7186 50.8721 77.4691C50.8721 90.2196 61.2468 100.594 73.9973 100.594C86.7487 100.594 97.1234 90.2193 97.1234 77.4691C97.1234 64.7186 86.7487 54.3439 73.9973 54.3439ZM73.9973 98.2813C62.5205 98.2813 53.1845 88.9457 53.1845 77.4688C53.1845 65.992 62.5205 56.6563 73.9973 56.6563C85.4753 56.6563 94.811 65.992 94.811 77.4688C94.811 88.9457 85.4753 98.2813 73.9973 98.2813Z" fill="#00BBD3"/>
<path d="M92.3362 73.7532C92.6527 73.5409 93.0409 73.1504 93.2035 72.4616C93.5286 72.1906 94.432 71.6959 94.9787 71.6259L94.6805 69.3314C93.6825 69.4601 91.1439 70.5148 91.0854 71.8134C90.7736 71.9195 89.6897 71.6259 89.1025 71.47C87.5939 71.0656 85.8869 70.6117 84.9653 71.8628C84.4909 72.5111 84.4955 73.4211 84.9789 74.295C85.6607 75.5282 87.3726 76.759 90.2182 76.8267C89.92 77.5583 89.274 78.8389 87.9778 81.0677L87.7429 81.4698C87.0701 82.6307 86.8441 83.8297 86.6275 84.9906C86.4467 85.964 86.2705 86.8853 85.8415 87.6736C85.4623 88.362 84.8704 88.9672 84.2427 89.6085C83.9132 89.9475 83.5832 90.286 83.2806 90.6406C82.0882 92.0228 81.2389 92.7477 79.9971 92.6461C79.4729 92.601 79.1524 91.5284 79.0393 91.0699C78.7729 90.0042 78.687 88.9018 78.5967 87.7343C78.4975 86.4109 78.389 85.0426 78.0095 83.6651C77.0566 80.2098 74.0676 80.2075 71.8839 80.2075L71.2359 80.2051C68.9683 80.1803 67.618 78.8392 67.5321 76.5221C67.4505 74.3248 68.0131 72.6242 69.2032 71.4634C70.5807 70.122 72.3762 69.9074 72.7239 69.9458C75.8923 70.5015 76.7176 70.7746 76.9253 70.8877C78.9667 72.0121 81.0445 71.4272 82.2007 70.5871C83.1582 69.8891 83.6323 68.9724 83.4654 68.1188C82.9685 65.6843 73.9117 64.5981 73.8234 64.5914C73.4034 64.5599 72.9764 64.6412 72.5182 64.7225C72.3265 64.756 72.0305 64.8081 71.791 64.833C71.8315 64.754 71.8882 64.666 71.9582 64.5735C73.5324 62.5003 75.9374 61.5474 78.4836 60.5402C79.4819 60.1427 80.4799 59.7476 81.4917 59.2552C82.2233 58.8462 82.6977 57.2497 82.7203 57.182L80.5024 56.5271C80.4029 56.8592 80.2632 57.1551 80.1637 57.3266C79.3416 57.7128 78.4879 58.0492 77.6346 58.388C74.903 59.4699 72.0803 60.5876 70.1109 63.1801C69.2122 64.3794 69.1196 65.6441 69.8783 66.4887C70.7094 67.3945 71.9923 67.1639 72.9273 66.997C73.1804 66.9542 73.4986 66.8613 73.6545 66.8998C75.6415 67.0418 79.5001 68.0086 80.9138 68.6612C80.7469 68.7945 80.5073 68.9415 80.1958 69.052C79.6899 69.2282 78.9083 69.3433 78.0456 68.8645C77.4226 68.5191 75.9944 68.1738 73.0245 67.6496C72.3652 67.5365 69.9443 67.7511 67.9072 69.5148C66.6044 70.6438 65.0799 72.7917 65.2199 76.608C65.353 80.1606 67.7039 82.4797 71.209 82.5182L71.8842 82.5205C74.3595 82.5205 75.3349 82.6741 75.7798 84.2821C76.1029 85.4453 76.1952 86.6443 76.2924 87.9137C76.3884 89.1243 76.483 90.3751 76.7948 91.6264C77.4361 94.2189 78.7865 94.8646 79.7983 94.9505C79.9519 94.9641 80.0963 94.9707 80.2409 94.9707C82.409 94.9707 83.8453 93.5252 85.033 92.1515C85.3038 91.8333 85.6023 91.5307 85.9 91.2255C86.6095 90.5009 87.3411 89.7511 87.8696 88.7844C88.4794 87.6738 88.6917 86.5263 88.8994 85.4152C89.0889 84.4036 89.2697 83.4459 89.7441 82.6284L89.9743 82.2309C92.585 77.7547 93.154 76.1672 92.5173 75.1533C92.2237 74.6902 91.6906 74.4645 91.1398 74.4894C89.3602 74.6361 88.3029 74.2343 87.7296 73.8796C87.4585 73.7107 87.2734 73.5366 87.147 73.3853C87.5621 73.453 88.1224 73.6019 88.5063 73.7038C89.8792 74.0717 91.3021 74.4489 92.3362 73.7532Z" fill="#00BBD3"/>
<path d="M60.0769 87.3268C59.8941 81.7215 57.157 77.8282 52.3669 76.3628L51.6895 78.5757C54.0065 79.2824 55.6846 80.6489 56.6759 82.6316C58.5886 86.4639 57.4888 91.5611 57.2064 92.3401L58.2634 92.796L58.6722 93.8779C60.1266 93.3289 60.0792 87.3872 60.0769 87.3268Z" fill="#00BBD3"/>
</g>
<defs>
<clipPath id="clip0">
<rect width="148" height="148" fill="white" transform="translate(-0.000976562)"/>
</clipPath>
</defs>
</svg>

<svg width="148" height="148" fill="none" xmlns="http://www.w3.org/2000/svg"><g clip-path="url(#clip0)"><path d="M93.654 116.782H54.343c-.64 0-1.157.517-1.157 1.156v16.188c0 .307.122.6.34.817l4.624 4.625c.217.217.51.339.818.339H89.03c.306 0 .6-.122.817-.339l4.625-4.625c.217-.217.339-.51.339-.817v-16.188c0-.639-.52-1.156-1.157-1.156zm-1.156 16.865l-3.947 3.947H59.447l-3.948-3.947v-14.553h37v14.553z" fill="#fff"/><path d="M95.904 121.409l-43.934 2.313a1.156 1.156 0 00.06 2.31c.02 0 .041 0 .062-.003l43.934-2.312a1.154 1.154 0 001.093-1.215c-.031-.637-.564-1.185-1.215-1.093zm0 6.937l-43.934 2.313a1.156 1.156 0 00.06 2.31c.02 0 .041 0 .062-.002l43.934-2.313a1.154 1.154 0 001.093-1.215c-.031-.636-.564-1.167-1.215-1.093zM74 38.156c-21.678 0-39.313 17.636-39.313 39.313 0 13.656 6.903 26.057 18.5 33.301v7.168c0 .639.517 1.156 1.156 1.156h39.311c.638 0 1.157-.517 1.157-1.156v-7.168c11.594-7.244 18.5-19.645 18.5-33.3 0-21.679-17.637-39.314-39.312-39.314zm19.058 70.977a1.16 1.16 0 00-.56.991v6.658H55.5v-6.658a1.16 1.16 0 00-.56-.991C43.707 102.362 37 90.524 37 77.469c0-20.402 16.598-37 37-37 20.4 0 36.999 16.598 36.999 37 0 13.055-6.708 24.893-17.94 31.664zm-8.13 28.595a1.16 1.16 0 00-1.553.497c-.086.162-2.182 3.995-9.376 3.995-7.186 0-9.286-3.821-9.376-3.995a1.155 1.155 0 00-1.547-.509c-.572.287-.802.98-.518 1.552.109.214 2.733 5.264 11.441 5.264 8.707 0 11.331-5.05 11.44-5.264a1.15 1.15 0 00-.51-1.54zM24.28 76.312H1.155a1.155 1.155 0 100 2.313H24.28a1.155 1.155 0 100-2.313zm122.563 0h-23.125c-.642 0-1.156.518-1.156 1.157s.514 1.156 1.156 1.156h23.125a1.157 1.157 0 000-2.313zm-114.9 25.438a1.15 1.15 0 00-1.579-.422l-20.031 11.563a1.153 1.153 0 00-.422 1.578 1.152 1.152 0 001.579.422l20.03-11.562a1.154 1.154 0 00.423-1.579zm106.138-61.281a1.147 1.147 0 00-1.577-.423L116.482 51.61a1.152 1.152 0 00-.425 1.578 1.16 1.16 0 001.581.423l20.023-11.563c.55-.318.74-1.025.42-1.578zm-27.083-27.085a1.153 1.153 0 00-1.581.422L97.859 33.833c-.32.554-.13 1.26.425 1.579a1.15 1.15 0 001.576-.422l11.558-20.027a1.154 1.154 0 00-.42-1.579zm-35.842-8.76a1.156 1.156 0 10-2.313 0l.004 23.121a1.156 1.156 0 102.313 0l-.004-23.12zM50.145 33.829L38.583 13.806a1.152 1.152 0 00-1.579-.422 1.153 1.153 0 00-.422 1.579l11.563 20.022a1.153 1.153 0 001.578.422 1.153 1.153 0 00.422-1.578zm87.521 79.057l-20.027-11.563a1.156 1.156 0 10-1.156 2.001l20.027 11.563a1.151 1.151 0 001.576-.422 1.155 1.155 0 00-.42-1.579zM31.52 51.6L11.498 40.04a1.156 1.156 0 00-1.156 2.001L30.364 53.6a1.154 1.154 0 001.579-.422c.32-.553.13-1.26-.423-1.578z" fill="#fff"/><path d="M73.997 54.344c-12.75 0-23.125 10.375-23.125 23.125s10.375 23.125 23.125 23.125c12.752 0 23.126-10.375 23.126-23.125S86.75 54.344 73.997 54.344zm0 43.937c-11.477 0-20.813-9.335-20.813-20.812s9.337-20.813 20.813-20.813c11.478 0 20.814 9.336 20.814 20.813 0 11.477-9.336 20.812-20.814 20.812z" fill="#00BBD3"/><path d="M92.336 73.753c.317-.212.705-.603.868-1.291.325-.271 1.228-.766 1.775-.836l-.299-2.295c-.998.13-3.536 1.184-3.595 2.482-.311.106-1.395-.187-1.982-.343-1.51-.404-3.216-.858-4.138.393-.474.648-.47 1.558.014 2.432.682 1.233 2.394 2.464 5.24 2.532-.299.731-.945 2.012-2.241 4.24l-.235.403c-.673 1.16-.899 2.36-1.115 3.52-.181.974-.358 1.895-.787 2.684-.379.688-.97 1.293-1.598 1.934-.33.34-.66.678-.962 1.033-1.193 1.382-2.042 2.107-3.284 2.005-.524-.045-.845-1.118-.958-1.576-.266-1.066-.352-2.168-.442-3.336-.1-1.323-.208-2.691-.587-4.069-.953-3.455-3.942-3.458-6.126-3.458l-.648-.002c-2.268-.025-3.618-1.366-3.704-3.683-.081-2.197.481-3.898 1.671-5.059 1.378-1.341 3.173-1.556 3.52-1.517 3.17.555 3.995.829 4.202.942 2.042 1.124 4.12.54 5.276-.3.957-.699 1.431-1.616 1.264-2.47-.496-2.434-9.553-3.52-9.642-3.527-.42-.031-.847.05-1.305.132-.192.033-.487.085-.727.11.04-.079.097-.167.167-.26 1.574-2.073 3.98-3.026 6.526-4.033.998-.397 1.996-.792 3.008-1.285.731-.409 1.206-2.005 1.228-2.073l-2.218-.655c-.1.332-.239.628-.338.8-.822.386-1.676.722-2.53 1.061-2.731 1.082-5.554 2.2-7.523 4.792-.899 1.2-.991 2.464-.233 3.309.831.905 2.114.675 3.05.508.252-.043.57-.136.727-.097 1.986.142 5.845 1.109 7.259 1.761-.167.133-.407.28-.718.391a2.568 2.568 0 01-2.15-.188c-.623-.345-2.052-.69-5.022-1.214-.659-.114-3.08.101-5.117 1.865-1.303 1.129-2.827 3.277-2.687 7.093.133 3.553 2.484 5.872 5.989 5.91l.675.002c2.475 0 3.45.154 3.896 1.762.323 1.163.415 2.362.512 3.632.096 1.21.191 2.461.503 3.712.641 2.593 1.992 3.239 3.003 3.325.154.013.298.02.443.02 2.168 0 3.604-1.446 4.792-2.82.27-.318.57-.62.867-.925.71-.725 1.441-1.475 1.97-2.442.61-1.11.822-2.258 1.03-3.369.189-1.011.37-1.97.844-2.787l.23-.397c2.611-4.476 3.18-6.064 2.543-7.078-.293-.463-.826-.689-1.377-.664-1.78.147-2.837-.255-3.41-.61a2.407 2.407 0 01-.583-.494c.415.068.975.217 1.36.319 1.372.368 2.795.745 3.83.05zM60.077 87.327c-.183-5.605-2.92-9.499-7.71-10.964l-.677 2.213c2.317.706 3.995 2.073 4.986 4.056 1.913 3.832.813 8.93.53 9.708l1.057.456.41 1.082c1.454-.55 1.406-6.49 1.404-6.551z" fill="#00BBD3"/></g><defs><clipPath id="clip0"><path fill="#fff" transform="translate(-.001)" d="M0 0h148v148H0z"/></clipPath></defs></svg>
